src/assets/filled/Verify.svg

<svg width="24" height="24" viewBox="0 0 24 24"  xmlns="http://www.w3.org/2000/svg">
<path d="M21.5599 10.7396L20.1999 9.15957C19.9399 8.85957 19.7299 8.29957 19.7299 7.89957V6.19957C19.7299 5.13957 18.8599 4.26957 17.7999 4.26957H16.0999C15.7099 4.26957 15.1399 4.05957 14.8399 3.79957L13.2599 2.43957C12.5699 1.84957 11.4399 1.84957 10.7399 2.43957L9.16988 3.80957C8.86988 4.05957 8.29988 4.26957 7.90988 4.26957H6.17988C5.11988 4.26957 4.24988 5.13957 4.24988 6.19957V7.90957C4.24988 8.29957 4.03988 8.85957 3.78988 9.15957L2.43988 10.7496C1.85988 11.4396 1.85988 12.5596 2.43988 13.2496L3.78988 14.8396C4.03988 15.1396 4.24988 15.6996 4.24988 16.0896V17.7996C4.24988 18.8596 5.11988 19.7296 6.17988 19.7296H7.90988C8.29988 19.7296 8.86988 19.9396 9.16988 20.1996L10.7499 21.5596C11.4399 22.1496 12.5699 22.1496 13.2699 21.5596L14.8499 20.1996C15.1499 19.9396 15.7099 19.7296 16.1099 19.7296H17.8099C18.8699 19.7296 19.7399 18.8596 19.7399 17.7996V16.0996C19.7399 15.7096 19.9499 15.1396 20.2099 14.8396L21.5699 13.2596C22.1499 12.5696 22.1499 11.4296 21.5599 10.7396ZM16.1599 10.1096L11.3299 14.9396C11.1899 15.0796 10.9999 15.1596 10.7999 15.1596C10.5999 15.1596 10.4099 15.0796 10.2699 14.9396L7.84988 12.5196C7.55988 12.2296 7.55988 11.7496 7.84988 11.4596C8.13988 11.1696 8.61988 11.1696 8.90988 11.4596L10.7999 13.3496L15.0999 9.04957C15.3899 8.75957 15.8699 8.75957 16.1599 9.04957C16.4499 9.33957 16.4499 9.81957 16.1599 10.1096Z" />
</svg>

<?xml version="1.0" encoding="UTF-8"?>
<svg width="24" height="24" viewBox="0 0 24 24" xmlns="http://www.w3.org/2000/svg">
 <path d="m21.56 10.74-1.36-1.58c-0.26-0.3-0.47-0.86-0.47-1.26v-1.7c0-1.06-0.87-1.93-1.93-1.93h-1.7c-0.39 0-0.96-0.21-1.26-0.47l-1.58-1.36c-0.69-0.59-1.82-0.59-2.52 0l-1.57 1.37c-0.3 0.25-0.87 0.46-1.26 0.46h-1.73c-1.06 0-1.93 0.87-1.93 1.93v1.71c0 0.39-0.21 0.95-0.46 1.25l-1.35 1.59c-0.58 0.69-0.58 1.81 0 2.5l1.35 1.59c0.25 0.3 0.46 0.86 0.46 1.25v1.71c0 1.06 0.87 1.93 1.93 1.93h1.73c0.39 0 0.96 0.21 1.26 0.47l1.58 1.36c0.69 0.59 1.82 0.59 2.52 0l1.58-1.36c0.3-0.26 0.86-0.47 1.26-0.47h1.7c1.06 0 1.93-0.87 1.93-1.93v-1.7c0-0.39 0.21-0.96 0.47-1.26l1.36-1.58c0.58-0.69 0.58-1.83-0.01-2.52zm-5.4-0.63-4.83 4.83c-0.14 0.14-0.33 0.22-0.53 0.22s-0.39-0.08-0.53-0.22l-2.42-2.42c-0.29-0.29-0.29-0.77 0-1.06s0.77-0.29 1.06 0l1.89 1.89 4.3-4.3c0.29-0.29 0.77-0.29 1.06 0s0.29 0.77 0 1.06z"/>
</svg>
